packages/katcn/src/icons/svg/invisible-solid.svg

<svg xmlns="http://www.w3.org/2000/svg" fill="none" viewBox="0 0 24 24"><path fill="#000" d="M21.8 9.8C19.8 8.1 16.5 6 12 6h-1c-.4 0-.7.3-.9.6s0 .8.2 1.1l8.4 8.4c.2.2.4.3.7.3.2 0 .4-.1.5-.2.6-.4 1.1-.8 1.7-1.3.8-.6 1.2-1.6 1.2-2.6.2-.9-.2-1.8-1-2.5m-4.5 6.5L8.1 7.2 4.3 3.3c-.4-.4-1-.4-1.4 0s-.4 1 0 1.4l2.8 2.8c-1.3.6-2.4 1.4-3.5 2.3Q1 10.85 1 12.5c0 1 .4 2 1.2 2.6 2 1.7 5.3 3.8 9.8 3.8 1.5 0 2.9-.2 4.3-.7l3.5 3.5c.2.2.5.3.7.3.3 0 .5-.1.7-.3.4-.4.4-1 0-1.4zM12 14.8c-1.3 0-2.3-1-2.3-2.3 0-.3 0-.5.1-.8l2.9 2.9c-.2.1-.4.2-.7.2"/></svg>

<svg width="24" height="24" viewBox="0 0 24 24" fill="none" xmlns="http://www.w3.org/2000/svg">
<path d="M21.8 9.8C19.8 8.1 16.5 6 12 6C11.7 6 11.4 6 11 6C10.6 6 10.3 6.3 10.1 6.6C9.89999 6.9 10.1 7.4 10.3 7.7L18.7 16.1C18.9 16.3 19.1 16.4 19.4 16.4C19.6 16.4 19.8 16.3 19.9 16.2C20.5 15.8 21 15.4 21.6 14.9C22.4 14.3 22.8 13.3 22.8 12.3C23 11.4 22.6 10.5 21.8 9.8Z" fill="black"/>
<path d="M17.3 16.3L8.1 7.2L4.3 3.3C3.9 2.9 3.3 2.9 2.9 3.3C2.5 3.7 2.5 4.3 2.9 4.7L5.7 7.5C4.4 8.1 3.3 8.9 2.2 9.8C1.4 10.5 1 11.4 1 12.5C1 13.5 1.4 14.5 2.2 15.1C4.2 16.8 7.5 18.9 12 18.9C13.5 18.9 14.9 18.7 16.3 18.2L19.8 21.7C20 21.9 20.3 22 20.5 22C20.8 22 21 21.9 21.2 21.7C21.6 21.3 21.6 20.7 21.2 20.3L17.3 16.3ZM12 14.8C10.7 14.8 9.7 13.8 9.7 12.5C9.7 12.2 9.7 12 9.8 11.7L12.7 14.6C12.5 14.7 12.3 14.8 12 14.8Z" fill="black"/>
</svg>
